X: 16
T:San Pelaio
M:2/4
L:1/16
Q:200
C:Trad
R:Pasodoble
K:D
d4 A2F2 | d4 A2F2 | d4{a} d4- | d2A2G2F2 | d4 A2F2 |
 d4 A2c2 | B4 {D}B4-
| B8 | d4 c2B2 | A4 G2F2 |
c4 {D}c4- | c2A2G2F2 | B4 {D}B4- | B2G2E2G2 |1 F8- | F8 
:|2|: F8- | F2{d} F2G2A2 | B2cB A4- | A2F2G2A2 | B2cB A4- |
A2F2G2A2 | B6 c2 | B2A2G2F2 | A2BA G4- | G2E2F2G2| A2BA G4- | G2E2F2G2 |
A2BA G4- | G2E2F2G2 | c6 d2 | c2B2A2G2 :| F8- | F8

